public/images/logo.svg

<svg width="203" height="83" viewBox="0 0 203 83" fill="none" xmlns="http://www.w3.org/2000/svg">
<path d="M12.0361 0.00537109C15.0738 0.00537109 17.5714 1.01579 19.664 3.03662C21.6891 5.05745 22.7692 7.54982 22.7692 10.5137C22.7692 13.4776 21.6892 15.9026 19.5965 17.9234C17.5714 19.9443 15.0063 20.9547 11.9686 20.9547H6.50077V31.1936H0.35791V0.00537109H12.0361ZM12.0361 15.229C13.3187 15.229 14.4662 14.7575 15.2763 13.8818C16.1538 13.0061 16.5589 11.8609 16.5589 10.5137C16.5589 9.16648 16.1538 8.02134 15.2763 7.14565C14.3987 6.26995 13.3187 5.79843 12.0361 5.79843H6.50077V15.229H12.0361Z" fill="#001489"/>
<path d="M32.8948 25.3331H44.843L42.6829 31.1936H26.752V0.00537109H32.8948V25.3331Z" fill="#001489"/>
<path d="M69.7519 31.2609L67.7943 25.67H54.9685L53.0784 31.2609H46.3955L57.3311 0.00537109H64.9591L76.0297 31.2609H69.7519ZM56.9261 19.8769H65.7691L61.2464 7.14565L56.9261 19.8769Z" fill="#001489"/>
<path d="M97.4959 0.00537109V5.86579H89.0579V31.1936H82.915V5.93315H74.4771V0.0727325H97.4959V0.00537109Z" fill="#001489"/>
<path d="M100.939 0.00537109H107.082V31.2609H100.939V0.00537109Z" fill="#001489"/>
<path d="M131.045 0.00537109H137.188V31.2609H132.463L119.03 12.1304V31.2609H112.887V0.00537109H117.544L130.978 19.0012V0.00537109H131.045Z" fill="#001489"/>
<path d="M154.672 31.8672C151.162 31.8672 148.326 30.8568 146.099 28.9033C143.871 26.9498 142.724 24.3227 142.724 21.022V0.00537109H148.866V20.5505C148.866 22.1672 149.339 23.5144 150.284 24.4575C151.229 25.4005 152.714 25.872 154.672 25.872C156.697 25.872 158.115 25.4005 159.06 24.4575C160.005 23.5144 160.477 22.2345 160.477 20.5505V0.00537109H166.62V21.022C166.62 24.3227 165.472 26.9498 163.245 28.9033C161.085 30.9241 158.182 31.8672 154.672 31.8672Z" fill="#001489"/>
<path d="M202.869 0.00537109V31.2609H196.727V10.9852L187.884 25.4679H187.141L178.366 11.0526V31.2609H172.223V0.00537109H178.568L187.546 14.7575L196.457 0.00537109H202.869Z" fill="#001489"/>
<path d="M16.6939 52.6146C18.1114 53.2208 19.259 54.1639 20.1366 55.3764C21.0141 56.5889 21.4191 58.0708 21.4191 59.6201C21.4191 61.9104 20.6091 63.7965 18.989 65.4132C17.3689 67.0299 15.4788 67.8382 13.1837 67.8382H0.35791V38.4688H12.2386C14.3987 38.4688 16.2888 39.2771 17.8414 40.8264C19.394 42.3757 20.1366 44.2618 20.1366 46.4174C20.1366 49.0444 18.989 51.1326 16.6939 52.6146ZM12.1711 41.2306H3.26058V51.4694H12.1711C13.5212 51.4694 14.7362 50.9979 15.6813 49.9875C16.6264 48.9771 17.1664 47.7646 17.1664 46.35C17.1664 44.9354 16.6939 43.7229 15.6813 42.7125C14.6687 41.7021 13.5887 41.2306 12.1711 41.2306ZM13.1837 65.0764C14.6687 65.0764 15.8838 64.5375 16.8964 63.5271C17.9089 62.4493 18.449 61.1694 18.449 59.6875C18.449 58.2056 17.9089 56.9257 16.8964 55.8479C15.8838 54.7701 14.6012 54.2313 13.1837 54.2313H3.26058V65.0764H13.1837Z" fill="#001489"/>
<path d="M44.5056 67.8382L37.6202 56.05H29.3847V67.8382H26.4146V38.4688H38.2277C40.6579 38.4688 42.7505 39.3444 44.5056 41.0285C46.2607 42.7799 47.0708 44.8007 47.0708 47.2931C47.0708 49.3139 46.4632 51.0653 45.3156 52.6146C44.1006 54.1639 42.6155 55.2417 40.7254 55.7132L47.9483 67.8382H44.5056ZM29.3847 41.2306V53.3556H38.2277C39.8478 53.3556 41.2654 52.7493 42.413 51.6042C43.5605 50.3917 44.1681 48.9771 44.1681 47.3604C44.1681 45.6764 43.5605 44.2618 42.413 43.0493C41.2654 41.9042 39.8478 41.2979 38.2277 41.2979H29.3847V41.2306Z" fill="#001489"/>
<path d="M102.761 38.4688V41.2306H93.7159V67.8382H90.7457V41.2306H81.7002V38.4688H102.761Z" fill="#001489"/>
<path d="M125.915 38.4688H128.886V67.8382H125.915V54.0965H109.917V67.8382H106.947V38.4688H109.917V51.3347H125.915V38.4688Z" fill="#001489"/>
<path d="M138.539 65.0764H152.849V67.8382H135.568V38.4688H152.579V41.2306H138.471V51.6042H151.499V54.366H138.471V65.0764H138.539Z" fill="#001489"/>
<path d="M175.935 67.8382L169.05 56.05H160.747V67.8382H157.777V38.4688H169.59C172.02 38.4688 174.113 39.3444 175.868 41.0285C177.623 42.7799 178.433 44.8007 178.433 47.2931C178.433 49.3139 177.826 51.0653 176.678 52.6146C175.463 54.1639 173.978 55.2417 172.088 55.7132L179.311 67.8382H175.935ZM160.815 41.2306V53.3556H169.658C171.278 53.3556 172.695 52.7493 173.843 51.6042C174.99 50.3917 175.598 48.9771 175.598 47.3604C175.598 45.6764 174.99 44.2618 173.843 43.0493C172.695 41.9042 171.278 41.2979 169.658 41.2979H160.815V41.2306Z" fill="#001489"/>
<path d="M192.406 68.3095C189.706 68.3095 187.411 67.7033 185.454 66.4234C183.563 65.1436 182.213 63.3922 181.403 61.1693L183.901 59.6873C184.441 61.5061 185.386 62.9206 186.871 63.9311C188.289 64.9415 190.111 65.4804 192.406 65.4804C194.567 65.4804 196.322 65.0088 197.537 63.9984C198.752 63.0554 199.359 61.7755 199.359 60.1588C199.359 58.6095 198.819 57.4644 197.672 56.6561C196.524 55.8477 194.702 55.0394 192.136 54.2311C189.099 53.2206 187.074 52.4123 186.061 51.8061C183.833 50.4588 182.686 48.5054 182.686 45.9456C182.686 43.4533 183.563 41.4998 185.319 40.0179C187.074 38.6033 189.234 37.8623 191.731 37.8623C194.027 37.8623 196.052 38.4686 197.739 39.6137C199.427 40.8262 200.642 42.3081 201.452 44.1943L198.954 45.6088C197.604 42.3755 195.174 40.7588 191.731 40.7588C189.909 40.7588 188.424 41.2304 187.344 42.1061C186.196 42.9818 185.656 44.2616 185.656 45.8109C185.656 47.2929 186.129 48.3706 187.141 49.1116C188.154 49.8526 189.841 50.5936 192.136 51.3345C193.217 51.6713 193.959 51.9408 194.432 52.1429C194.904 52.2776 195.579 52.547 196.457 52.8838C197.334 53.2206 198.009 53.5574 198.414 53.8269C198.819 54.0963 199.359 54.4331 199.967 54.9047C200.574 55.3762 200.979 55.8477 201.249 56.3193C201.519 56.7908 201.722 57.3297 201.992 58.0033C202.195 58.6769 202.33 59.3505 202.33 60.0915C202.33 62.5838 201.384 64.6047 199.562 66.0866C197.739 67.5686 195.377 68.3095 192.406 68.3095Z" fill="#001489"/>
<path d="M55.7111 64.672C58.0737 61.7755 61.6515 59.9568 65.6342 59.9568C69.6844 59.9568 73.2621 61.7755 75.5573 64.672C75.8273 64.4026 76.1648 64.1331 76.4348 63.8637C79.405 60.8998 80.8226 57.3297 80.8226 53.0859C80.8226 48.8422 79.3375 45.272 76.4348 42.3081C73.4646 39.3442 69.8869 37.8623 65.6342 37.8623C61.3814 37.8623 57.7362 39.3442 54.8336 42.3081C51.8634 45.272 50.4458 48.8422 50.4458 53.0859C50.4458 57.3297 51.9309 60.8998 54.8336 63.8637C55.1036 64.2005 55.3736 64.4699 55.7111 64.672ZM65.6342 43.0491C69.4144 43.0491 72.4521 46.0804 72.4521 49.8526C72.4521 53.6248 69.4144 56.6561 65.6342 56.6561C61.854 56.6561 58.8163 53.6248 58.8163 49.8526C58.8163 46.0804 61.854 43.0491 65.6342 43.0491Z" fill="#001489"/>
<path d="M0.35791 82.5226V75.4497H1.03295V82.5226H0.35791Z" fill="#7C878E"/>
<path d="M9.94329 75.4497H10.6183V82.5226H10.0108L5.75805 76.6622V82.5226H5.08301V75.4497H5.75805L9.94329 81.2428V75.4497Z" fill="#7C878E"/>
<path d="M18.9892 75.4497V76.1233H16.7616V82.5226H16.0865V76.1233H13.8589V75.4497H18.9892Z" fill="#7C878E"/>
<path d="M21.959 77.8747V75.4497H22.634V77.8747H21.959Z" fill="#7C878E"/>
<path d="M27.0896 81.849H30.3298V82.5226H26.4146V75.4497H27.0896V81.849Z" fill="#7C878E"/>
<path d="M46.1255 82.5226H45.3829L44.3704 76.7296L41.8727 82.3205H41.6702L39.1726 76.7296L38.16 82.5226H37.4175L38.6325 75.4497H39.3076L41.7377 80.9733L44.2354 75.4497H44.9104L46.1255 82.5226Z" fill="#7C878E"/>
<path d="M54.631 82.5226L53.8885 80.7039H50.3108L49.5682 82.5226H48.8257L51.7284 75.4497H52.4034L55.4411 82.5226H54.631ZM52.0659 76.4601L50.5808 80.0976H53.6185L52.0659 76.4601Z" fill="#7C878E"/>
<path d="M63.4741 75.4497H64.1491V82.5226H63.5416L59.2888 76.6622V82.5226H58.6138V75.4497H59.2888L63.4741 81.2428V75.4497Z" fill="#7C878E"/>
<path d="M70.6972 75.4497C71.3723 75.4497 71.9123 75.6518 72.3173 76.056C72.7899 76.4601 72.9924 76.999 72.9924 77.6726C72.9924 78.2789 72.7899 78.8178 72.3173 79.2893C71.9123 79.6935 71.3048 79.8955 70.6972 79.8955H68.9421V82.5226H68.2671V75.4497H70.6972ZM70.6297 79.2219C71.1023 79.2219 71.5073 79.0872 71.7773 78.7504C72.1148 78.481 72.2498 78.0768 72.2498 77.6726C72.2498 77.2011 72.1148 76.8643 71.7773 76.5948C71.4398 76.3254 71.1023 76.1907 70.6297 76.1907H68.8746V79.2893H70.6297V79.2219Z" fill="#7C878E"/>
<path d="M79.5402 82.6573C79.0002 82.6573 78.5277 82.59 78.0551 82.3879C77.5826 82.1858 77.1776 81.9164 76.9076 81.6469C76.5701 81.3101 76.3 80.906 76.165 80.5018C75.9625 80.0303 75.895 79.5587 75.895 79.0872C75.895 78.5483 75.9625 78.0768 76.165 77.6053C76.3675 77.1337 76.6376 76.7969 76.9076 76.4601C77.2451 76.1233 77.6501 75.8539 78.0551 75.7192C78.5277 75.5171 79.0002 75.4497 79.5402 75.4497C80.2153 75.4497 80.8903 75.5844 81.4303 75.9212C81.9704 76.258 82.4429 76.6622 82.7804 77.2011C83.1179 77.74 83.2529 78.4136 83.2529 79.0872C83.2529 79.7608 83.1179 80.3671 82.7804 80.9733C82.4429 81.5122 82.0379 81.9837 81.4303 82.2532C80.8903 82.4553 80.2828 82.6573 79.5402 82.6573ZM79.5402 81.9164C80.4178 81.9164 81.0928 81.6469 81.6329 81.0407C82.1729 80.5018 82.4429 79.7608 82.4429 78.9525C82.4429 78.4136 82.3079 77.8747 82.0379 77.4705C81.7679 76.999 81.4303 76.6622 80.9578 76.3928C80.4853 76.1233 80.0128 75.9886 79.4052 75.9886C78.8652 75.9886 78.3252 76.1233 77.8526 76.3928C77.3801 76.6622 77.0426 76.999 76.7726 77.4705C76.5026 77.9421 76.3675 78.4136 76.3675 78.9525C76.3675 79.4914 76.5026 80.0303 76.7726 80.4344C77.0426 80.906 77.3801 81.2428 77.8526 81.5122C78.4602 81.7816 79.0002 81.9164 79.5402 81.9164Z" fill="#7C878E"/>
<path d="M94.9983 75.4497H95.7408L93.5132 82.5226H92.9057L90.8805 77.1337L88.8554 82.5226H88.1804L85.8853 75.4497H86.6278L88.5179 81.3775L90.678 75.6518H90.948L93.1082 81.3775L94.9983 75.4497Z" fill="#7C878E"/>
<path d="M99.7239 81.849H103.099V82.5226H99.0488V75.4497H102.964V76.1233H99.7239V78.5483H102.694V79.2219H99.7239V81.849Z" fill="#7C878E"/>
<path d="M110.794 82.5226L109.107 79.6261H107.284V82.5226H106.609V75.4497H109.242C109.917 75.4497 110.457 75.6518 110.862 76.056C111.267 76.4601 111.469 76.9316 111.469 77.6053C111.469 78.0768 111.334 78.5483 110.997 78.8851C110.659 79.2219 110.322 79.4914 109.782 79.6261L111.537 82.5226H110.794ZM107.351 76.1233V78.9525H109.242C109.714 78.9525 110.052 78.8178 110.389 78.5483C110.659 78.2789 110.794 77.9421 110.794 77.5379C110.794 77.1337 110.659 76.7969 110.389 76.5275C110.119 76.258 109.714 76.1233 109.242 76.1233H107.351Z" fill="#7C878E"/>
<path d="M124.565 82.5226L123.823 80.7039H120.245L119.502 82.5226H118.76L121.662 75.4497H122.337L125.375 82.5226H124.565ZM122 76.4601L120.515 80.0976H123.553L122 76.4601Z" fill="#7C878E"/>
<path d="M131.181 79.0872H134.961C134.961 79.7608 134.758 80.367 134.488 80.9059C134.218 81.4448 133.746 81.849 133.273 82.1858C132.733 82.4552 132.126 82.6573 131.451 82.6573C130.776 82.6573 130.168 82.5226 129.628 82.1858C129.088 81.849 128.683 81.4448 128.346 80.9059C128.008 80.367 127.873 79.7608 127.873 79.0198C127.873 78.3462 128.008 77.74 128.346 77.1337C128.683 76.5948 129.088 76.1233 129.628 75.8538C130.168 75.517 130.776 75.3823 131.451 75.3823C132.328 75.3823 133.071 75.6518 133.678 76.1233C134.286 76.5948 134.691 77.2011 134.893 77.942H134.083C133.948 77.4032 133.611 76.9316 133.138 76.5948C132.666 76.258 132.058 76.0559 131.451 76.0559C130.641 76.0559 129.966 76.3254 129.426 76.8643C128.886 77.4032 128.616 78.1441 128.616 78.9525C128.616 79.8282 128.886 80.5018 129.426 81.108C129.966 81.6469 130.641 81.9163 131.451 81.9163C132.193 81.9163 132.801 81.7143 133.273 81.3101C133.746 80.9059 134.083 80.367 134.218 79.6934H131.181V79.0872Z" fill="#7C878E"/>
<path d="M139.146 81.849H142.521V82.5226H138.471V75.4497H142.386V76.1233H139.146V78.5483H142.116V79.2219H139.146V81.849Z" fill="#7C878E"/>
<path d="M150.892 75.4497H151.567V82.5226H150.959L146.706 76.6622V82.5226H146.031V75.4497H146.706L150.892 81.2428V75.4497Z" fill="#7C878E"/>
<path d="M158.722 82.6573C158.182 82.6573 157.71 82.59 157.237 82.3879C156.765 82.1858 156.427 81.9837 156.09 81.6469C155.752 81.3101 155.55 80.9733 155.347 80.5018C155.145 80.0302 155.077 79.5587 155.077 79.0198C155.077 78.3462 155.212 77.6726 155.55 77.1337C155.887 76.5948 156.292 76.1233 156.832 75.8538C157.372 75.517 157.98 75.3823 158.722 75.3823C159.532 75.3823 160.207 75.5844 160.815 76.0559C161.423 76.4601 161.828 77.0664 162.03 77.8073H161.288C161.085 77.2684 160.747 76.8643 160.275 76.5275C159.802 76.1907 159.262 76.0559 158.655 76.0559C157.845 76.0559 157.102 76.3254 156.562 76.8643C156.022 77.4032 155.752 78.1441 155.752 79.0198C155.752 79.8955 156.022 80.5691 156.562 81.108C157.102 81.6469 157.777 81.9163 158.655 81.9163C159.262 81.9163 159.802 81.7816 160.275 81.4448C160.747 81.108 161.085 80.7039 161.288 80.0976H162.03C161.828 80.9059 161.423 81.5122 160.815 81.9163C160.275 82.3879 159.6 82.6573 158.722 82.6573Z" fill="#7C878E"/>
<path d="M170.603 75.4497L167.97 79.6935V82.5226H167.227V79.6935L164.595 75.4497H165.405L167.632 79.0198L169.86 75.4497H170.603Z" fill="#7C878E"/>
<path d="M178.366 82.5226V75.4497H179.041V82.5226H178.366Z" fill="#7C878E"/>
<path d="M187.951 75.4497H188.626V82.5226H188.086L183.834 76.6622V82.5226H183.159V75.4497H183.834L188.019 81.2428V75.4497H187.951Z" fill="#7C878E"/>
<path d="M195.782 82.6573C195.242 82.6573 194.769 82.59 194.297 82.3879C193.824 82.1858 193.487 81.9837 193.149 81.6469C192.812 81.3101 192.609 80.9733 192.407 80.5018C192.204 80.0302 192.137 79.5587 192.137 79.0198C192.137 78.3462 192.272 77.6726 192.609 77.1337C192.947 76.5948 193.352 76.1233 193.892 75.8538C194.432 75.517 195.039 75.3823 195.782 75.3823C196.592 75.3823 197.267 75.5844 197.875 76.0559C198.482 76.5275 198.887 77.0664 199.09 77.8073H198.347C198.145 77.2684 197.807 76.8643 197.335 76.5275C196.862 76.1907 196.322 76.0559 195.714 76.0559C194.904 76.0559 194.162 76.3254 193.622 76.8643C193.082 77.4032 192.812 78.1441 192.812 79.0198C192.812 79.8955 193.082 80.5691 193.622 81.108C194.162 81.6469 194.837 81.9163 195.714 81.9163C196.322 81.9163 196.862 81.7816 197.335 81.4448C197.807 81.108 198.145 80.7039 198.347 80.0976H199.09C198.887 80.9059 198.482 81.5122 197.875 81.9163C197.335 82.3879 196.659 82.6573 195.782 82.6573Z" fill="#7C878E"/>
<path d="M201.992 82.5226V81.5796H202.802V82.5226H201.992Z" fill="#7C878E"/>
</svg>

<svg xmlns="http://www.w3.org/2000/svg" width="203" height="83" fill="none"><path fill="#001489" d="M12.036.005c3.038 0 5.535 1.01 7.628 3.032 2.025 2.02 3.105 4.513 3.105 7.477s-1.08 5.389-3.172 7.41c-2.026 2.02-4.59 3.03-7.628 3.03H6.5v10.24H.358V.005zm0 15.224c1.283 0 2.43-.471 3.24-1.347.878-.876 1.283-2.021 1.283-3.368 0-1.348-.405-2.493-1.283-3.368-.877-.876-1.957-1.348-3.24-1.348H6.501v9.431zM32.895 25.333h11.948l-2.16 5.86H26.752V.006h6.143zM69.752 31.26l-1.958-5.59H54.97l-1.89 5.59h-6.684L57.332.006h7.628l11.07 31.256zM56.926 19.878h8.843L61.246 7.146zM97.496.005v5.86h-8.438v25.329h-6.143V5.934h-8.438V.072h23.019zM100.939.005h6.143v31.256h-6.143zM131.045.005h6.143v31.256h-4.725L119.03 12.13v19.13h-6.143V.005h4.657l13.434 18.996V.005zM154.672 31.867c-3.51 0-6.346-1.01-8.573-2.964s-3.375-4.58-3.375-7.881V.005h6.142v20.546c0 1.616.473 2.963 1.418 3.907.945.943 2.43 1.414 4.388 1.414 2.025 0 3.443-.471 4.388-1.415.945-.943 1.417-2.222 1.417-3.907V.005h6.143v21.017c0 3.3-1.148 5.928-3.375 7.881-2.16 2.021-5.063 2.964-8.573 2.964M202.869.005v31.256h-6.142V10.985l-8.843 14.483h-.743l-8.775-14.415V31.26h-6.143V.005h6.345l8.978 14.753L196.457.005zM16.694 52.615a8.16 8.16 0 0 1 3.443 2.761c.877 1.213 1.282 2.695 1.282 4.244 0 2.29-.81 4.177-2.43 5.793s-3.51 2.425-5.805 2.425H.358v-29.37h11.88c2.16 0 4.05.81 5.603 2.358 1.553 1.55 2.296 3.436 2.296 5.591 0 2.627-1.148 4.716-3.443 6.198M12.17 41.23h-8.91v10.238h8.91c1.35 0 2.565-.471 3.51-1.482.945-1.01 1.485-2.222 1.485-3.637s-.472-2.627-1.485-3.638c-1.012-1.01-2.092-1.481-3.51-1.481m1.013 23.845c1.485 0 2.7-.538 3.712-1.549 1.013-1.078 1.553-2.358 1.553-3.84s-.54-2.761-1.553-3.84c-1.012-1.077-2.295-1.616-3.712-1.616H3.26v10.845zM44.506 67.838 37.62 56.05h-8.235v11.788h-2.97v-29.37h11.813c2.43 0 4.523.876 6.278 2.56 1.755 1.752 2.565 3.773 2.565 6.265 0 2.02-.608 3.772-1.755 5.322-1.215 1.549-2.7 2.627-4.59 3.098l7.222 12.125zM29.385 41.231v12.125h8.843c1.62 0 3.037-.607 4.185-1.752 1.148-1.212 1.755-2.627 1.755-4.244 0-1.684-.608-3.098-1.755-4.31-1.148-1.146-2.565-1.752-4.185-1.752h-8.843zM102.761 38.469v2.762h-9.045v26.607h-2.97V41.231H81.7v-2.762zM125.915 38.469h2.971v29.37h-2.971V54.096h-15.998v13.741h-2.97v-29.37h2.97v12.867h15.998zM138.539 65.076h14.31v2.762h-17.281v-29.37h17.011v2.763h-14.108v10.373h13.028v2.762h-13.028v10.71zM175.935 67.838 169.05 56.05h-8.303v11.788h-2.97v-29.37h11.813c2.43 0 4.523.876 6.278 2.56 1.755 1.752 2.565 3.773 2.565 6.265 0 2.02-.607 3.772-1.755 5.322-1.215 1.549-2.7 2.627-4.59 3.098l7.223 12.125zm-15.12-26.607v12.125h8.843c1.62 0 3.037-.607 4.185-1.752 1.147-1.212 1.755-2.627 1.755-4.244 0-1.684-.608-3.098-1.755-4.31-1.148-1.146-2.565-1.752-4.185-1.752h-8.843zM192.406 68.31c-2.7 0-4.995-.607-6.952-1.887q-2.836-1.919-4.051-5.254l2.498-1.482c.54 1.82 1.485 3.234 2.97 4.244 1.418 1.01 3.24 1.55 5.535 1.55 2.161 0 3.916-.472 5.131-1.483q1.822-1.414 1.822-3.84c0-1.549-.54-2.694-1.687-3.502s-2.97-1.617-5.536-2.425q-4.555-1.516-6.075-2.425c-2.228-1.347-3.375-3.3-3.375-5.86 0-2.493.877-4.446 2.633-5.928 1.755-1.415 3.915-2.156 6.412-2.156 2.296 0 4.321.607 6.008 1.752 1.688 1.212 2.903 2.694 3.713 4.58l-2.498 1.415c-1.35-3.233-3.78-4.85-7.223-4.85-1.822 0-3.307.471-4.387 1.347-1.148.876-1.688 2.156-1.688 3.705 0 1.482.473 2.56 1.485 3.3 1.013.742 2.7 1.483 4.995 2.224 1.081.336 1.823.606 2.296.808.472.135 1.147.404 2.025.74.877.338 1.552.674 1.957.944s.945.606 1.553 1.078c.607.471 1.012.943 1.282 1.414.27.472.473 1.01.743 1.684.203.674.338 1.347.338 2.089 0 2.492-.946 4.513-2.768 5.995-1.823 1.482-4.185 2.222-7.156 2.222M55.711 64.672a12.77 12.77 0 0 1 9.923-4.715c4.05 0 7.628 1.819 9.923 4.715.27-.27.608-.539.878-.808 2.97-2.964 4.388-6.534 4.388-10.778s-1.485-7.814-4.388-10.778c-2.97-2.964-6.548-4.446-10.8-4.446-4.254 0-7.899 1.482-10.801 4.446-2.97 2.964-4.388 6.534-4.388 10.778s1.485 7.814 4.388 10.778c.27.337.54.606.877.808m9.923-21.623a6.79 6.79 0 0 1 6.818 6.804 6.79 6.79 0 0 1-6.818 6.803 6.79 6.79 0 0 1-6.818-6.803 6.79 6.79 0 0 1 6.818-6.804"/><path fill="#7C878E" d="M.358 82.523V75.45h.675v7.073zM9.943 75.45h.675v7.073h-.607l-4.253-5.86v5.86h-.675V75.45h.675l4.185 5.793zM18.99 75.45v.673h-2.228v6.4h-.675v-6.4h-2.228v-.673zM21.959 77.875V75.45h.675v2.425zM27.09 81.849h3.24v.674h-3.915V75.45h.675zM46.126 82.523h-.743L44.37 76.73l-2.497 5.59h-.203l-2.497-5.59-1.013 5.793h-.742l1.215-7.073h.675l2.43 5.523 2.497-5.523h.675zM54.631 82.523l-.742-1.82H50.31l-.743 1.82h-.742l2.902-7.073h.675l3.038 7.073zm-2.565-6.063-1.485 3.638h3.037zM63.474 75.45h.675v7.073h-.607l-4.253-5.86v5.86h-.675V75.45h.675l4.185 5.793zM70.697 75.45q1.013 0 1.62.606c.473.404.675.943.675 1.617 0 .606-.202 1.145-.675 1.616-.405.404-1.012.606-1.62.606h-1.755v2.628h-.675V75.45zm-.067 3.772c.472 0 .877-.135 1.147-.472.338-.269.473-.673.473-1.077 0-.472-.135-.809-.473-1.078a1.7 1.7 0 0 0-1.147-.404h-1.755v3.098h1.755zM79.54 82.657c-.54 0-1.012-.067-1.485-.27-.472-.201-.877-.47-1.147-.74-.338-.337-.608-.741-.743-1.145a3.5 3.5 0 0 1-.27-1.415c0-.539.068-1.01.27-1.482.203-.471.473-.808.743-1.145.337-.337.742-.606 1.147-.74.473-.203.945-.27 1.485-.27.675 0 1.35.134 1.89.471s1.013.741 1.35 1.28.473 1.213.473 1.886c0 .674-.135 1.28-.473 1.886-.337.54-.742 1.01-1.35 1.28-.54.202-1.147.404-1.89.404m0-.74c.878 0 1.553-.27 2.093-.876.54-.54.81-1.28.81-2.088 0-.54-.135-1.078-.405-1.483a2.77 2.77 0 0 0-1.08-1.077 2.96 2.96 0 0 0-1.553-.404c-.54 0-1.08.134-1.552.404-.473.27-.81.606-1.08 1.078a2.9 2.9 0 0 0-.405 1.481c0 .54.135 1.078.405 1.482.27.472.607.809 1.08 1.078.607.27 1.147.404 1.687.404M94.998 75.45h.743l-2.228 7.073h-.607l-2.026-5.39-2.025 5.39h-.675l-2.295-7.073h.743l1.89 5.927 2.16-5.725h.27l2.16 5.725zM99.724 81.849h3.375v.674h-4.05V75.45h3.915v.673h-3.24v2.425h2.97v.674h-2.97zM110.794 82.523l-1.687-2.897h-1.823v2.897h-.675V75.45h2.633q1.012 0 1.62.606c.405.404.607.876.607 1.55 0 .47-.135.942-.472 1.28-.338.336-.675.605-1.215.74l1.755 2.897zm-3.443-6.4v2.83h1.891c.472 0 .81-.135 1.147-.405q.405-.404.405-1.01a1.37 1.37 0 0 0-.405-1.01c-.27-.27-.675-.405-1.147-.405zM124.565 82.523l-.742-1.82h-3.578l-.743 1.82h-.742l2.902-7.073h.675l3.038 7.073zM122 76.46l-1.485 3.638h3.038zM131.181 79.087h3.78c0 .674-.203 1.28-.473 1.819s-.742.943-1.215 1.28c-.54.27-1.147.471-1.822.471s-1.283-.134-1.823-.471a3.9 3.9 0 0 1-1.282-1.28c-.338-.539-.473-1.145-.473-1.886 0-.674.135-1.28.473-1.886.337-.54.742-1.01 1.282-1.28.54-.337 1.148-.472 1.823-.472.877 0 1.62.27 2.227.741a3.36 3.36 0 0 1 1.215 1.819h-.81a2.37 2.37 0 0 0-.945-1.347 2.96 2.96 0 0 0-1.687-.54q-1.215 0-2.025.81c-.54.538-.81 1.28-.81 2.088 0 .875.27 1.549.81 2.155q.81.808 2.025.808 1.113 0 1.822-.606c.473-.404.81-.943.945-1.617h-3.037zM139.146 81.849h3.375v.674h-4.05V75.45h3.915v.673h-3.24v2.425h2.97v.674h-2.97zM150.892 75.45h.675v7.073h-.608l-4.253-5.86v5.86h-.675V75.45h.675l4.186 5.793zM158.722 82.657c-.54 0-1.012-.067-1.485-.27-.472-.201-.81-.403-1.147-.74-.338-.337-.54-.674-.743-1.145-.202-.472-.27-.943-.27-1.482 0-.674.135-1.347.473-1.886.337-.54.742-1.01 1.282-1.28.54-.337 1.148-.472 1.89-.472.81 0 1.485.202 2.093.674.608.404 1.013 1.01 1.215 1.751h-.742c-.203-.539-.541-.943-1.013-1.28-.473-.336-1.013-.471-1.62-.471-.81 0-1.553.27-2.093.808-.54.54-.81 1.28-.81 2.156s.27 1.55.81 2.088c.54.539 1.215.808 2.093.808.607 0 1.147-.134 1.62-.471.472-.337.81-.741 1.013-1.347h.742q-.303 1.212-1.215 1.818c-.54.472-1.215.741-2.093.741M170.603 75.45l-2.633 4.243v2.83h-.743v-2.83l-2.632-4.243h.81l2.227 3.57 2.228-3.57zM178.366 82.523V75.45h.675v7.073zM187.951 75.45h.675v7.073h-.54l-4.252-5.86v5.86h-.675V75.45h.675l4.185 5.793V75.45zM195.782 82.657c-.54 0-1.013-.067-1.485-.27-.473-.201-.81-.403-1.148-.74s-.54-.674-.742-1.145c-.203-.472-.27-.943-.27-1.482 0-.674.135-1.347.472-1.886.338-.54.743-1.01 1.283-1.28.54-.337 1.147-.472 1.89-.472.81 0 1.485.202 2.093.674s1.012 1.01 1.215 1.751h-.743c-.202-.539-.54-.943-1.012-1.28-.473-.336-1.013-.471-1.621-.471-.81 0-1.552.27-2.092.808-.54.54-.81 1.28-.81 2.156s.27 1.55.81 2.088c.54.539 1.215.808 2.092.808.608 0 1.148-.134 1.621-.471.472-.337.81-.741 1.012-1.347h.743q-.304 1.212-1.215 1.818c-.54.472-1.216.741-2.093.741M201.992 82.523v-.943h.81v.943z"/></svg>
